SophosXG/sophosxg.svg

<svg xmlns="http://www.w3.org/2000/svg" viewBox="0 0 23.75 18" fill="none"><path d="M0.1875 0.0134277V9.0962C0.1875 10.6367 1.02196 12.0521 2.36672 12.7999L11.8828 17.9877L21.3828 12.8031C22.7275 12.0553 23.562 10.6399 23.562 9.10262V0.0134277H0.1875Z" fill="#2006F7"/><path d="M15.4035 10.7747C14.6975 11.1663 13.9047 11.3717 13.0992 11.3717L4.33091 11.346L9.2478 8.60515C9.7228 8.33877 10.2556 8.20076 10.8012 8.19755L20.0829 8.16866L15.4068 10.778L15.4035 10.7747ZM15.2688 6.28792C14.7938 6.55431 14.261 6.69231 13.7154 6.69552L4.43362 6.72441L9.1098 4.11512C9.81588 3.72356 10.6086 3.51816 11.4142 3.51816L20.1824 3.54383L15.2655 6.28471L15.2688 6.28792Z" fill="#FFFFFF"/></svg>

<svg fill="none" viewBox="0 0 23.75 18" xmlns="http://www.w3.org/2000/svg"><path fill="#2006F7" d="M.188.013v9.083c0 1.54.834 2.956 2.179 3.704l9.516 5.188 9.5-5.185a4.24 4.24 0 0 0 2.179-3.7V.013z"/><path fill="#FFF" d="M15.404 10.775a4.75 4.75 0 0 1-2.305.597l-8.768-.026 4.917-2.74a3.2 3.2 0 0 1 1.553-.408l9.282-.03-4.676 2.61zm-.135-4.487a3.2 3.2 0 0 1-1.554.408l-9.281.028L9.11 4.115a4.75 4.75 0 0 1 2.304-.597l8.768.026-4.916 2.74z"/></svg>
